svg/event-check.svg

<svg width="32" height="32" viewBox="0 0 32 32" fill="none" xmlns="http://www.w3.org/2000/svg">
<path fill-rule="evenodd" clip-rule="evenodd" d="M28 16C28 6 26 4 16 4C6 4 4 6 4 16C4 26 6 28 16 28C26 28 28 26 28 16ZM24.336 24.336C25.425 23.247 26 21.1 26 16C26 13.8599 25.8987 12.24 25.7008 11H16H6.2992C6.10123 12.24 6 13.8601 6 16C6 21.1 6.575 23.247 7.664 24.336C8.753 25.425 10.9 26 16 26C21.1 26 23.247 25.425 24.336 24.336ZM11 8.00001C11.0001 7.44769 11.4477 7.00002 12.0001 6.99995H20C20.5523 6.99995 21 7.44773 21 8.00001C21 8.5523 20.5523 9 20 9H12C11.4477 9 11 8.55226 11 8.00001Z" fill="black"/>
<path d="M15.1204 19.086L18.5344 15.672C18.9254 15.282 19.5584 15.281 19.9494 15.672C20.3394 16.062 20.3394 16.696 19.9484 17.086L18.5354 18.5L17.1204 19.914L15.7074 21.328C15.3164 21.718 14.6834 21.719 14.2924 21.328C13.9024 20.938 13.9024 20.304 14.2934 19.914L15.1204 19.086Z" fill="black"/>
<path d="M14.8796 19.086L13.4656 17.672C13.0746 17.282 12.4416 17.281 12.0506 17.672C11.6606 18.062 11.6606 18.696 12.0516 19.086L13.4646 20.5L12.8796 19.914L14.2926 21.328C14.6836 21.718 15.3166 21.719 15.7076 21.328C16.0976 20.938 16.0976 20.304 15.7066 19.914L14.8796 19.086Z" fill="black"/>
</svg>

<svg width="32" height="32" fill="none" xmlns="http://www.w3.org/2000/svg"><path fill-rule="evenodd" clip-rule="evenodd" d="M28 16C28 6 26 4 16 4S4 6 4 16s2 12 12 12 12-2 12-12zm-3.664 8.336C25.425 23.247 26 21.1 26 16c0-2.14-.101-3.76-.3-5H6.3C6.1 12.24 6 13.86 6 16c0 5.1.575 7.247 1.664 8.336C8.753 25.425 10.9 26 16 26s7.247-.575 8.336-1.664zM11 8a1 1 0 0 1 1-1h8a1 1 0 0 1 0 2h-8a1 1 0 0 1-1-1z" fill="#000"/><path d="M18.534 15.672L15 19.206l-1.534-1.534a1.001 1.001 0 0 0-1.414 1.414l1.413 1.414-.585-.586 1.399 1.4.013.014a.997.997 0 0 0 .708.293.997.997 0 0 0 .708-.293l.013-.014 4.227-4.228a1 1 0 1 0-1.414-1.414z" fill="#000"/></svg>
